!!!!SEGMENT: pl-kk--kk-i-7--049-003_samin-vulfran--missa-sancti-spiritus-sanctus.krn
!!!cenid: 16xx:862
!!!COM: Samin, Vulfran
!!!COM-rismID: pe30102784
!!!CDT: <1543->1559
!!!CNT: French
!!!OPR: Missa Sancti Spiritus
!!!OTL: Sanctus
!!!OMV: 003
!!!PDT:
!!!AGN: Sacred; Mass
!!!SMS-siglum: PL-Kk
!!!SMS-shelfmark: Kk.I.7
!!!SMS-shelfwork: 049-003 M
!!!SMS-variant:
!!!SMS-altvar:
!!!NIFC-rismSourceID: 300258077
!!!NIFC-rismChildID: 300258126
!!!NIFC-islandoraID: pl-kk:1956
!!!URL-pdf-islandora: https://repozytorium.nifc.pl/islandora/object/pl-kk%3A1956/datastream/PDF/view
!!!URL-scan: https://polish.musicsources.pl/pl/lokalizacje/galeria/rekopisy/6140 @EN{Scan on Polish Music Sources Website} @PL{Skany w portalu Dziedzictwo Muzyki Polskiej w otwartym dostępie}
!!!IIIF: https://repozytorium.nifc.pl/islandora/object/pl-kk%3A1956/datastream/IIIF/view
!!!ONB-nifc: UWAGA: C (skan 0044-0046, s.83-86), A (0129-0130, s.78-80), T(0205-0206, s.73-75), B(0294, s.74-75). Części Mszy: 1. Kyrie, 2. Et in terra, 3. Sanctus, 4. Agnus Dei
!!!AIN: 1 alto 1 bass 1 soprn 1 tenor
!!!key:
**kern	**text	**kern	**text	**kern	**text	**kern	**text
*part4	*part4	*part3	*part3	*part2	*part2	*part1	*part1
*staff4	*staff4	*staff3	*staff3	*staff2	*staff2	*staff1	*staff1
*group1	*	*group1	*	*group1	*	*group1	*
*>[A,B,C,B]	*	*>[A,B,C,B]	*	*>[A,B,C,B]	*	*>[A,B,C,B]	*
*>A	*	*>A	*	*>A	*	*>A	*
*Ibass	*	*Itenor	*	*Ialto	*	*Isoprn	*
*I"BASSVS.	*	*I"TENOR.	*	*I"ALTVS.	*	*I"CANTVS.	*
*I'B	*	*I'T	*	*I'A	*	*I'S	*
*clefF4	*	*clefC4	*	*clefC3	*	*clefC1	*
*k[]	*	*k[]	*	*k[]	*	*k[]	*
*C:	*	*C:	*	*C:	*	*C:	*
*M2/1	*	*M2/1	*	*M2/1	*	*M2/1	*
=1-	=1-	=1-	=1-	=1-	=1-	=1-	=1-
*xywh-#294:7172,637,5966,864	*	*xywh-#206:1391,1176,5808,666	*	*xywh-#129:7284,1623,5923,786	*	*xywh-#45:7160,851,5944,757	*
!LO:TX:t=P:problem=przed kluczem inicjał S	!	!LO:TX:t=P:problem=przed kluczem inicjał S	!	!LO:TX:t=P:problem=przed kluczem inicjał S	!	!LO:TX:t=P:problem=przed kluczem inicjał S	!
00r	.	00r	.	0G	San-	1ree	.
.	.	.	.	.	.	0g	San-
=2-	=2-	=2-	=2-	=2-	=2-	=2-	=2-
.	.	.	.	1.c	.	.	.
.	.	.	.	.	.	1a	.
*	*	*	*	*2\right	*	*	*
!	!	!	!	!LO:TX:t=P:problem=kreska pseudotaktowa	!	!	!
.	.	.	.	2d\	.	.	.
=3-	=3-	=3-	=3-	=3-	=3-	=3-	=3-
!LO:TX:t=P:problem=kreska pseudotaktowa	!	!LO:TX:t=P:problem=kreska pseudotaktowa	!	!	!	!	!
1rD	.	0r	.	2e\	.	2g/	.
.	.	.	.	2c\	.	1cc	.
0GG	San-	.	.	0d	.	.	.
.	.	.	.	.	.	4b\	.
!	!	!	!	!	!	!LO:TX:t=P:problem=kreska pseudotaktowa	!
.	.	.	.	.	.	4a\	.
=4-	=4-	=4-	=4-	=4-	=4-	=4-	=4-
.	.	0G	San-	.	.	1b	.
*	*	*	*	*	*	*2\right	*
1.C	.	.	.	1.e	.	2.cc\	.
.	.	.	.	.	.	4b\	.
=5-	=5-	=5-	=5-	=5-	=5-	=5-	=5-
.	.	1A	.	.	.	2a\	.
!LO:TX:t=P:problem=kreska pseudotaktowa	!	!	!	!	!	!LO:TX:t=P:problem=kreska pseudotaktowa	!
2D/	.	.	.	4d\	.	2f/	.
.	.	.	.	4c\	.	.	.
*2\right	*	*	*	*	*	*	*
2E\	.	2G,</	-ctus	2B/	.	0g	.
!LO:TX:t=P:problem=kreska pseudotaktowa	!	!	!	!	!	!	!
*	*	*	*ij	*	*	*	*
2C/	.	1c	San-	2e\	.	.	.
=6-	=6-	=6-	=6-	=6-	=6-	=6-	=6-
!	!	!	!	!LO:TX:t=P:problem=kreska pseudotaktowa	!	!	!
1.G	.	.	.	1d	-ctus	.	.
.	.	4B\	.	.	.	.	.
!	!	!LO:TX:t=P:problem=kreska pseudotaktowa	!	!	!	!	!
.	.	4A\	.	.	.	.	.
*	*	*2\right	*	*	*	*	*
.	.	2B\	.	1ra	.	2d/	-ctus
*	*	*	*	*	*	*	*ij
4F\	.	2c\	.	.	.	2.a\	San-
4E\	.	.	.	.	.	.	.
=7-	=7-	=7-	=7-	=7-	=7-	=7-	=7-
!LO:TX:t=P:problem=kreska pseudotaktowa	!	!	!	!	!	!	!
1F	.	1A	.	0c	San-	.	.
.	.	.	.	.	.	4g\	.
.	.	.	.	.	.	4a\	.
!	!	!	!	!	!	!LO:TX:t=P:problem=kreska pseudotaktowa	!
.	.	.	.	.	.	4b\	.
2E\	.	2G/	.	.	.	1cc	.
1F\	.	1A	.	.	.	.	.
=8-	=8-	=8-	=8-	=8-	=8-	=8-	=8-
!	!	!	!	!	!	!LO:TX:t=P:problem=kreska pseudotaktowa	!
.	.	.	.	1d	.	1a	-ctus
!LO:TX:t=P:problem=kreska pseudotaktowa	!	!	!	!	!	!	!
2D/	.	2F/	.	.	.	.	.
!	!	!	!	!LO:TX:t=P:problem=kreska pseudotaktowa	!	!	!
2E\	.	2G/	.	1c	.	1ree	.
2F\	.	1A	.	.	.	.	.
=9-	=9-	=9-	=9-	=9-	=9-	=9-	=9-
1D	.	.	.	1.f	.	1d	San-
.	.	2B\	.	.	.	.	.
!	!	!LO:TX:t=P:problem=kreska pseudotaktowa	!	!	!	!	!
0C	-ctus	1c	-ctus	.	.	1.g	.
*	*	*	*Xij	*	*	*	*
.	.	.	.	4e\	.	.	.
.	.	.	.	4d\	.	.	.
=10-	=10-	=10-	=10-	=10-	=10-	=10-	=10-
!LO:TX:t=P:problem=kreska pseudotaktowa	!	!	!	!	!	!	!
.	.	1r	.	2e\	.	.	.
!	!	!	!	!	!	!LO:TX:t=P:problem=kreska pseudotaktowa	!
.	.	.	.	2f\	.	2a\	.
!	!	!	!	!LO:TX:t=P:problem=kreska pseudotaktowa	!	!	!
0r	.	1G	San-	1d	.	1b	.
=11-	=11-	=11-	=11-	=11-	=11-	=11-	=11-
!	!	!	!	!	!	!LO:TX:t=P:problem=kreska pseudotaktowa	!
.	.	1.c	.	2.e\	-ctus	1a	-ctus
*	*	*	*	*	*	*	*Xij
.	.	.	.	4f\	.	.	.
!	!	!	!	!LO:TX:t=P:problem=kreska pseudotaktowa	!	!	!
0C	San-	.	.	1g	Do-	1ree	.
.	.	2d\	.	.	.	.	.
=12-	=12-	=12-	=12-	=12-	=12-	=12-	=12-
.	.	1e	.	1c	-mi-	2r	.
.	.	.	.	.	.	1g	Do-
1D	.	1d	.	2B/	-n(us)	.	.
.	.	.	.	2A/	De-	2f/	-mi-
=13-	=13-	=13-	=13-	=13-	=13-	=13-	=13-
*lig	*	*	*	*	*	*	*
!	!	!LO:TX:t=P:problem=kreska pseudotaktowa	!	!	!	!	!
1C	.	1G	-ctus	1.c	-us	2e/	-n(us)
.	.	.	.	.	.	2g\	De-
!	!	!	!	!	!	!LO:TX:t=P:problem=kreska pseudotaktowa	!
1F	.	1r	.	.	.	1a	-us
.	.	.	.	2d\	.	.	.
*Xlig	*	*	*	*	*	*	*
=14-	=14-	=14-	=14-	=14-	=14-	=14-	=14-
2E\	.	1c	Do-	2e\	.	2g\	.
2F\	.	.	.	2A/	Sab-	2.a\	Sab-
!LO:TX:t=P:problem=kreska pseudotaktowa	!	!	!	!LO:TX:t=P:problem=kreska pseudotaktowa	!	!	!
1D	.	2B\	-mi-	1d	.	.	.
.	.	.	.	.	.	4g/	.
.	.	2A\	-n(us)	.	.	2f/	-ba-
=15-	=15-	=15-	=15-	=15-	=15-	=15-	=15-
!	!	!LO:TX:t=P:problem=kreska pseudotaktowa	!	!	!	!LO:TX:t=P:problem=kreska pseudotaktowa	!
2C,/	-ctus	1c	De-	2G/	.	1g	-oth.
2C/	D(o-	.	.	1g	.	.	.
2BB/	-mi)-	2d\	-us	.	.	1r	.
2AA,</	-nus	4c\	Sab-	1f\	.	.	.
.	.	4B\	.	.	.	.	.
=16-	=16-	=16-	=16-	=16-	=16-	=16-	=16-
1C	De-	4A/	.	.	.	2r	.
.	.	4G/	.	.	.	.	.
*	*	*	*	*custos:e	*	*	*
!	!	!	!	!LO:TX:t=P::problem=kreska pseudotaktowa&colon;między nutą a kropką	!	!	!
.	.	1G	.	2.e\	.	2cc\	D(o-
!LO:TX:t=P:problem=kreska pseudotaktowa	!	!	!	!	!	!	!
1D	-(us)	.	.	.	.	2b\	-mi)-
!	!	!	!	!LO:LB:g=original	!	!	!
*	*	*	*	*xywh-#129:7317,2190,5821,719	*	*	*
.	.	.	.	4d\	.	.	.
*	*	*	*	*	*	*custos:cc	*
!	!	!	!	!	!	!LO:TX:t=P:problem=kreska pseudotaktowa	!
.	.	2F/	-ba-	2d\	.	2a\	-nus
!	!	!	!	!	!	!LO:LB:g=original	!
=17-	=17-	=17-	=17-	=17-	=17-	=17-	=17-
!	!	!LO:TX:t=P:problem=kreska pseudotaktowa	!	!	!	!	!
*	*	*	*	*	*	*xywh-#45:7228,1375,5732,780	*
1C	Sab-	1G	-oth	2e\	.	1cc	DE-
.	.	.	.	1c	.	.	.
!	!	!	!	!	!	!LO:TX:t=P:problem=kreska pseudotaktowa	!
1GG	.	2rF	.	.	.	1dd	-US
!	!	!	!	!LO:TX:t=P:problem=kreska pseudotaktowa	!	!	!
.	.	2G/	Do-	2B/	.	.	.
=18-	=18-	=18-	=18-	=18-	=18-	=18-	=18-
2D/	-ba-	2F/	-mi-	2A/	.	2r	.
!	!	!LO:TX:t=P:problem=kreska pseudotaktowa	!	!	!	!	!
2C/	.	2E/	-n(us)	2c\	.	2.g\	Sab-
!LO:TX:t=P:problem=kreska pseudotaktowa	!	!LO:LB:g=original	!	!	!	!	!
*	*	*xywh-#206:1585,1655,5643,808	*	*	*	*	*
1GG	-oth.	1G	DE-	2.d\	.	.	.
.	.	.	.	.	.	4a\	.
.	.	.	.	.	.	2b\	.
.	.	.	.	4e\	.	.	.
=19-	=19-	=19-	=19-	=19-	=19-	=19-	=19-
*custos:G	*	*	*	*	*	*	*
!LO:TX:t=P:problem=kreska pseudotaktowa	!	!	!	!	!	!	!
1rA	.	2A\	-(us)	2f\	.	2a\	.
.	.	1c	Sab-	2e\	-ba-	2g\	-ba-
!LO:LB:g=original	!	!	!	!LO:TX:t=P:problem=kreska pseudotaktowa	!	!LO:TX:t=P:problem=kreska pseudotaktowa	!
*xywh-#294:7165,1355,5959,606	*	*	*	*	*	*	*
1G	Do-	.	.	1d	-oth.	1g	-oth.
.	.	2B\	-ba-	.	.	.	.
=20-	=20-	=20-	=20-	=20-	=20-	=20-	=20-
!	!	!LO:TX:t=P:problem=kreska pseudotaktowa	!	!	!	!	!
2F\	-mi-	1c	-oth.	2rf	.	1ree	.
!LO:TX:t=P:problem=kreska pseudotaktowa	!	!	!	!	!	!	!
2E\	-n(us)	.	.	1e	Do-	.	.
1G	DE-	1rf	.	.	.	2r	.
.	.	.	.	2d\	-mi-	2g\	Do-
=21-	=21-	=21-	=21-	=21-	=21-	=21-	=21-
!LO:TX:t=P:problem=kreska pseudotaktowa	!	!	!	!	!	!	!
1A	-(us)	2r	.	2c\	-n(us)	2f/	-mi-
.	.	1c	Do-	2c\	De-	2e/	-n(us)
1E	Sab-	.	.	2G/	.	1g	DE-
!	!	!	!	!LO:TX:t=P:problem=kreska pseudotaktowa	!	!	!
.	.	2B\	-mi-	2G/	-us	.	.
=22-	=22-	=22-	=22-	=22-	=22-	=22-	=22-
!	!	!	!	!	!	!LO:TX:t=P:problem=kreska pseudotaktowa	!
1.F	.	2A\	-n(us)	2c/	Sab-	1a	-(us)
!	!	!LO:TX:t=P:problem=kreska pseudotaktowa	!	!	!	!	!
.	.	2c\	DE-	1A	.	.	.
.	.	1d	-us	.	.	2f/	Sab-
!LO:TX:t=P:problem=kreska pseudotaktowa	!	!	!	!	!	!	!
2D\	.	.	.	2f\	.	2.a\	.
=23-	=23-	=23-	=23-	=23-	=23-	=23-	=23-
2G\	.	2B\	Sab-	2d\	.	.	.
.	.	.	.	.	.	4g/	.
2C/	.	2c\	.	2e\	-ba-	1g	.
!	!	!	!	!LO:TX:t=P:problem=kreska pseudotaktowa	!	!	!
2.D/	.	1A	-ba-	1d	-oth.	.	.
.	.	.	.	.	.	2f/	-ba-
4D/	-ba-	.	.	.	.	.	.
=24-	=24-	=24-	=24-	=24-	=24-	=24-	=24-
!LO:TX:t=P:problem=kreska pseudotaktowa	!	!LO:TX:t=P:problem=kreska pseudotaktowa	!	!	!	!LO:TX:t=P:problem=kreska pseudotaktowa	!
1GG	-oth.	1G	-oth.	2r	.	0g	-oth.
.	.	.	.	1d	Ple-	.	.
1.G	Ple-	00r	.	.	.	.	.
!	!	!	!	!LO:TX:t=P:problem=kreska pseudotaktowa	!	!	!
.	.	.	.	2B/	-ni	.	.
=25-	=25-	=25-	=25-	=25-	=25-	=25-	=25-
.	.	.	.	2d\	ſunt	0r	.
!LO:TX:t=P:problem=kreska pseudotaktowa	!	!	!	!	!	!	!
2A\	-ni	.	.	2c\	cae-	.	.
2G\	sunt	.	.	2d\	-li	.	.
2F\	cae-	.	.	2d\	et	.	.
=26-	=26-	=26-	=26-	=26-	=26-	=26-	=26-
!	!	!	!	!	!	!LO:TX:t=P:problem=kreska pseudotaktowa	!
2G\	-li	.	.	1B	ter-	1r	.
2G\	et	.	.	.	.	.	.
!	!	!LO:TX:t=P:problem=kreska pseudotaktowa	!	!LO:TX:t=P:problem=kreska pseudotaktowa	!	!	!
1E	ter-	1r	.	0G	-ra	1.g	Ple-
=27-	=27-	=27-	=27-	=27-	=27-	=27-	=27-
!LO:TX:t=P:problem=kreska pseudotaktowa	!	!	!	!	!	!	!
1C	-ra	1.c	Ple-	.	.	.	.
.	.	.	.	.	.	2e/	-ni
0r	.	.	.	0r	.	2g/	sunt
.	.	2d\	.	.	.	2f/	.
=28-	=28-	=28-	=28-	=28-	=28-	=28-	=28-
.	.	2c\	-ni	.	.	2g/	cae-
!	!	!LO:TX:t=P:problem=kreska pseudotaktowa	!	!	!	!	!
.	.	2B\	sunt	.	.	2g/	-li
!	!	!	!	!LO:TX:t=P:problem=kreska pseudotaktowa	!	!	!
*	*ij	*	*	*	*	*	*
1.C	Ple-	2c\	cae-	1r	.	1e	et
.	.	2c\	-li	.	.	.	.
=29-	=29-	=29-	=29-	=29-	=29-	=29-	=29-
!	!	!	!	!	!	!LO:TX:t=P:problem=kreska pseudotaktowa	!
.	.	1A	et	2r	.	1c	ter-
!LO:TX:t=P:problem=kreska pseudotaktowa	!	!	!	!	!	!	!
2AA/	-ni	.	.	1c	Ple-	.	.
!	!	!	!	!	!	!LO:TX:t=P:problem=kreska pseudotaktowa	!
2C/	sunt	2.G/	ter-	.	.	0g	-ra
2BB/	.	.	.	2d\	-ni	.	.
.	.	4F/	.	.	.	.	.
=30-	=30-	=30-	=30-	=30-	=30-	=30-	=30-
2C/	cae-	2E/	.	2c\	sunt	.	.
!LO:TX:t=P:problem=kreska pseudotaktowa	!	!	!	!LO:TX:t=P:problem=kreska pseudotaktowa	!	!	!
2GG/	.	2D/	.	2B/	cae-	.	.
!	!	!	!	!LO:LB:g=original	!	!	!
*	*	*	*	*xywh-#129:7334,2808,5821,660	*	*	*
1C	-li	1E	.	2c\	-li	2r	.
.	.	.	.	2c\	et	2g/	glo-
=31-	=31-	=31-	=31-	=31-	=31-	=31-	=31-
2D/	et	2F/	.	0A	ter-	2f/	-ri-
!LO:TX:t=P:problem=kreska pseudotaktowa	!	!	!	!	!	!	!
2C/	.	1G	.	.	.	2e/	.
1D	ter-	.	.	.	.	1f	-a
.	.	2F/	.	.	.	.	.
=32-	=32-	=32-	=32-	=32-	=32-	=32-	=32-
!LO:TX:t=P:problem=kreska pseudotaktowa	!	!	!	!LO:TX:t=P:problem=kreska pseudotaktowa	!	!	!
1GG	-ra	1G	.	1B	-ra	2.d/	glo-
*	*Xij	*	*	*	*	*	*
.	.	.	.	.	.	4e/	.
!	!	!LO:TX:t=P:problem=kreska pseudotaktowa	!	!	!	!	!
00r	.	1D	-ra	2r	.	4f/	.
.	.	.	.	.	.	4g/	.
.	.	.	.	2d\	glo-	1a\	.
=33-	=33-	=33-	=33-	=33-	=33-	=33-	=33-
.	.	2rF	.	2c/	-ri-	.	.
!	!	!	!	!	!	!LO:TX:t=P:problem=kreska pseudotaktowa	!
.	.	2G/	glo-	2B/	-a	2g/	.
!	!	!	!	!LO:TX:t=P:problem=kreska pseudotaktowa	!	!LO:LB:g=original	!
*	*	*	*	*	*	*xywh-#45:7243,1912,5664,719	*
.	.	2F/	-ri-	1c	tu-	2a\	.
.	.	2E/	-a	.	.	2g\	.
=34-	=34-	=34-	=34-	=34-	=34-	=34-	=34-
.	.	1F	tu-	2A/	-a	2a\	.
*	*	*	*	*	*ij	*	*
.	.	.	.	2c/	glo-	2.f/	.
!LO:TX:t=P:problem=kreska pseudotaktowa	!	!	!	!	!	!	!
0r	.	2D/	-a	2d\	.	.	.
.	.	.	.	.	.	4g/	.
.	.	1F/	glo-	1c\	-ri-	1a\	.
=35-	=35-	=35-	=35-	=35-	=35-	=35-	=35-
.	.	.	.	.	.	.	.
*	*	*custos:A	*	*	*	*	*
!	!	!LO:TX:t=P:problem=kreska pseudotaktowa	!	!	!	!	!
.	.	2G/	-ri-	2B/	-a	4g/	-ri-
!	!	!	!	!	!	!LO:TX:t=P:problem=kreska pseudotaktowa	!
.	.	.	.	.	.	4f/	.
!	!	!LO:LB:g=original	!	!	!	!	!
*	*	*xywh-#206:1563,2089,5741,793	*	*	*	*	*
2rC	.	2.A\	-a	2c/	tu-	2e/	-a
!LO:TX:t=P:problem=kreska pseudotaktowa	!	!	!	!	!	!	!
2D/	glo-	.	.	2F/	.	2f/	tu-
.	.	4B\	.	.	.	.	.
=36-	=36-	=36-	=36-	=36-	=36-	=36-	=36-
!	!	!	!	!LO:TX:t=P:problem=kreska pseudotaktowa	!	!	!
2C/	-ri-	2c\	.	1G	-a	2e/	.
*	*	*	*	*	*Xij	*	*
2BB/	-a	2d\	tu-	.	.	2.g/	.
*custos:AA	*	*	*	*	*	*	*
!LO:TX:t=P:problem=kreska pseudotaktowa	!	!	!	!	!	!	!
!	!	!LO:TX:t=P:problem=kreska pseudotaktowa	!	!LO:TX:t=P:problem=kreska pseudotaktowa	!	!	!
1C	tu-	1G	-a	0r	.	.	.
.	.	.	.	.	.	4f/	.
.	.	.	.	.	.	4e/	.
!	!	!	!	!	!	!LO:TX:t=P:problem=kreska pseudotaktowa	!
.	.	.	.	.	.	4d/	.
!LO:LB:g=original	!	!	!	!	!	!	!
=37-	=37-	=37-	=37-	=37-	=37-	=37-	=37-
*xywh-#294:7172,1891,6300,627	*	*	*	*	*	*	*
2AA,</	-a	2rF	.	.	.	2c,</	-a
1C	glo-	2G/	glo-	.	.	1e	glo-
.	.	2A/	-ri-	2r	.	.	.
!	!	!LO:TX:t=P:problem=kreska pseudotaktowa	!	!	!	!LO:TX:t=P:problem=kreska pseudotaktowa	!
2D/	.	2F/	.	2d\	glo-	2f/	.
=38-	=38-	=38-	=38-	=38-	=38-	=38-	=38-
1E	-ri-	2.G/	-a	2c/	-ri-	2e/	-ri-
!	!	!	!	!LO:TX:t=P:problem=kreska pseudotaktowa	!	!	!
.	.	.	.	2B/	-a	1g	-a
.	.	4A\	glo-	.	.	.	.
!	!	!	!	!LO:TX:t=P:problem=kreska pseudotaktowa	!	!	!
2.D\	-a	2B\	.	1d	tu-	.	.
.	.	2.A/	.	.	.	1f	glo-
4E\	.	.	.	.	.	.	.
=39-	=39-	=39-	=39-	=39-	=39-	=39-	=39-
*	*ij	*	*	*	*	*	*
2F\	glo-	.	.	2c\	-a	.	.
.	.	4G/	.	.	.	.	.
!LO:TX:t=P:problem=kreska pseudotaktowa	!	!	!	!	!	!	!
2C/	.	1c	-ri-	2e\	glo-	2.g/	.
1G	-ri-	.	.	1.d	-ri-	.	.
.	.	.	.	.	.	4f/	.
!	!	!LO:TX:t=P:problem=kreska pseudotaktowa	!	!	!	!	!
.	.	2B\	-a	.	.	4d/	-ri-
.	.	.	.	.	.	4e/	.
=40-	=40-	=40-	=40-	=40-	=40-	=40-	=40-
2F\	-a	2A/	tu-	.	.	2f/	-a
*	*Xij	*	*	*	*	*	*
2C/	tu-	1G	.	4c/	-a	2e/	tu-
.	.	.	.	4B/	.	.	.
!LO:TX:t=P:problem=kreska pseudotaktowa	!	!	!	!LO:TX:t=P:problem=kreska pseudotaktowa	!	!LO:TX:t=P:problem=kreska pseudotaktowa	!
1D	.	.	.	1A	tu-	1d	.
!	!	!LO:TX:t=P:problem=kreska pseudotaktowa	!	!	!	!	!
.	.	2F#X/	.	.	.	.	.
=41-	=41-	=41-	=41-	=41-	=41-	=41-	=41-
!LO:TX:t=P:problem=kreska pseudotaktowa	!	!LO:TX:t=P:problem=kreska pseudotaktowa	!	!	!	!	!
!LO:N:vis=2.	!	!LO:N:vis=2.	!	!	!	!	!
1GG;	-â	1G;	-a	2B;,</	-a	2.d;;,/	-a
*>B	*	*>B	*	*>B	*	*	*
.	.	.	.	1d	O-	.	.
.	.	.	.	.	.	4e/	.
!LO:TX:t=P:problem=kreska pseudotaktowa	!	!	!	!	!	!LO:TX:t=P:problem=kreska pseudotaktowa	!
1rA	.	2r	.	.	.	1f#X	.
!	!	!	!	!LO:TX:t=P:problem=kreska pseudotaktowa	!	!	!
.	.	1d\	O-	2d\	-san-	.	.
=42-	=42-	=42-	=42-	=42-	=42-	=42-	=42-
*	*	*	*	*	*	*>B	*
1.G	O-	.	.	2B/	-na	1ree	.
!	!	!LO:TX:t=P:problem=kreska pseudotaktowa	!	!	!	!	!
.	.	2d\	-san-	2B/	in	.	.
.	.	2B\	-na	2d\	.	1.g	O-
2G\	-san-	2B\	in	2d\	ex-	.	.
=43-	=43-	=43-	=43-	=43-	=43-	=43-	=43-
2E\	-na	0c	ex-	2.e\	-cel-	.	.
2E\	in	.	.	.	.	2g/	-san-
!	!	!	!	!LO:TX:t=P:problem=kreska pseudotaktowa	!	!	!
.	.	.	.	4f\	.	.	.
!	!	!	!	!LO:LB:g=original	!	!	!
*	*	*	*	*xywh-#129:7317,3298,5897,660	*	*	*
2C/	ex-	.	.	2g\	.	2e/	-na
2E\	.	.	.	2G/	.	2e/	in
=44-	=44-	=44-	=44-	=44-	=44-	=44-	=44-
0D	-cel-	0d	-cel-	2A/	.	1fny	ex-
.	.	.	.	1c	.	.	.
!	!	!	!	!	!	!LO:TX:t=P:problem=kreska pseudotaktowa	!
.	.	.	.	.	.	1f	-cel-
.	.	.	.	2B/	.	.	.
=45-	=45-	=45-	=45-	=45-	=45-	=45-	=45-
2C,/	-ſis.	2G,/	-ſis	2c,/	-sis	2e,</	-ſis
!LO:TX:t=P:problem=kreska pseudotaktowa	!	!LO:TX:t=P:problem=kreska pseudotaktowa	!	!LO:TX:t=P:problem=kreska pseudotaktowa	!	!	!
2C/	O-	2G/	O-	2c/	O-	2e/	O-
1.F	-san-	1.A	-san-	1.c	-san-	1.f	-san-
=46-	=46-	=46-	=46-	=46-	=46-	=46-	=46-
.	.	.	.	.	.	.	.
2C/	-na	2G/	.	2c/	-na	2e/	.
2D/	in	2Fny/	-na	2A/	in	2d/	-na
!LO:TX:t=P:problem=kreska pseudotaktowa	!	!	!	!LO:TX:t=P:problem=kreska pseudotaktowa	!	!	!
2C/	.	2G/	in	2c/	ex-	2e/	.
=47-	=47-	=47-	=47-	=47-	=47-	=47-	=47-
2GG/	ex-	2.G/	ex-	2.B/	-cel-	1d	in
1G	-cel-	.	.	.	.	.	.
!	!	!	!	!LO:TX:t=P:problem=kreska pseudotaktowa	!	!	!
.	.	4A/	.	4c/	.	.	.
*	*	*	*	*	*	*custos:f	*
!	!	!	!	!	!	!LO:TX:t=P:problem=kreska pseudotaktowa	!
.	.	2B\	-cel-	2d\	.	1g	ex-
!LO:TX:t=P:problem=kreska pseudotaktowa	!	!	!	!	!	!	!
2C/	.	2c\	.	2.e\	.	.	.
!	!	!	!	!	!	!LO:LB:g=original	!
=48-	=48-	=48-	=48-	=48-	=48-	=48-	=48-
*lig	*	*	*	*	*	*	*
*	*	*	*	*	*	*xywh-#45:7175,2511,5907,590	*
1D	.	2A/	.	.	.	2f/	-[cel]-
.	.	.	.	4d\	.	.	.
.	.	2F/	.	1d	.	1a	.
1E	.	1G	.	.	.	.	.
.	.	.	.	2c\	.	1g\	.
*Xlig	*	*	*	*	*	*	*
=49-	=49-	=49-	=49-	=49-	=49-	=49-	=49-
0D	.	0A	.	[0dl;	-sis.	.	.
.	.	.	.	.	.	4f#X/	.
.	.	.	.	.	.	4e/	.
.	.	.	.	.	.	1f#	.
=50-	=50-	=50-	=50-	=50-	=50-	=50-	=50-
0GGl;	-sis.	0Gl;	-sis.	0d]	.	0lg;	-sis.
!	!	!LO:LB:g=original	!	!	!	!	!
*	*	*xywh-#206:1488,2553,5718,778	*	*	*	*	*
=51||	=51||	=51||	=51||	=51||	=51||	=51||	=51||
*>C	*	*>C	*	*>C	*	*>C	*
*M2/1	*	*M2/1	*	*M2/1	*	*M2/1	*
!LO:TX:a:t=Benedict(us) Tacet	!	!LO:TX:t=P:problem=przed kluczem inicjał B	!	!LO:TX:t=P:problem=przed kluczem inicjał B	!	!LO:TX:t=P:problem=przed metrum inicjał B	!
!	!	!	!	!LO:TX:t=P:problem=kreska pseudotaktowa	!	!	!
0ryy	.	0G	Be-	00r	.	00r	.
=52-	=52-	=52-	=52-	=52-	=52-	=52-	=52-
0ryy	.	1A	-ne-	.	.	.	.
.	.	1.G	-di-	.	.	.	.
=53-	=53-	=53-	=53-	=53-	=53-	=53-	=53-
!	!	!	!	!	!	!LO:TX:t=P:problem=kreska pseudotaktowa	!
0ryy	.	.	.	0d	Be-	0r	.
.	.	4F/	.	.	.	.	.
!	!	!LO:TX:t=P:problem=kreska pseudotaktowa	!	!	!	!	!
.	.	4E/	.	.	.	.	.
.	.	2F/	.	.	.	.	.
.	.	2G/	.	.	.	.	.
=54-	=54-	=54-	=54-	=54-	=54-	=54-	=54-
0ryy	.	2C/	-ct(us)	1e	-ne-	0g	-Be-
.	.	1c	qui-	.	.	.	.
!	!	!	!	!LO:TX:t=P:problem=kreska pseudotaktowa	!	!	!
.	.	.	.	1d	-di-	.	.
!	!	!LO:TX:t=P:problem=kreska pseudotaktowa	!	!	!	!	!
.	.	2B\	.	.	.	.	.
=55-	=55-	=55-	=55-	=55-	=55-	=55-	=55-
0ryy	.	2.A/	-Ve-	2.c/	-ctus	1a	-ne-
.	.	8G/L	.	8B/L	.	.	.
.	.	8F/J	.	8A/J	.	.	.
!	!	!	!	!	!	!LO:TX:t=P:problem=kreska pseudotaktowa	!
.	.	4E/	.	2B/	Be-	1g	-di-
.	.	4D/	.	.	.	.	.
.	.	2E/	.	2c/	-ne-	.	.
=56-	=56-	=56-	=56-	=56-	=56-	=56-	=56-
*	*	*lig	*	*	*	*	*
0ryy	.	1D	.	2d\	.	2.fny/	-ctus
.	.	.	.	2A/	.	.	.
.	.	.	.	.	.	8e/L	.
.	.	.	.	.	.	8d/J	.
.	.	1A	.	1c	.	2e/	.
.	.	.	.	.	.	2f/	.
*	*	*Xlig	*	*	*	*	*
=57-	=57-	=57-	=57-	=57-	=57-	=57-	=57-
!	!	!LO:TX:t=P:problem=kreska pseudotaktowa	!	!	!	!	!
0ryy	.	1G	-nit	2.B/	.	2g,/	.
.	.	.	.	.	.	2d/	qui
*	*	*	*	*custos:d	*	*	*
!	!	!	!	!LO:TX:t=P:problem=kreska pseudotaktowa	!	!	!
.	.	.	.	4c/	.	.	.
!	!	!	!	!LO:LB:g=original	!	!LO:TX:t=P:problem=kreska pseudotaktowa	!
*	*	*	*	*xywh-#129:7343,3798,5999,727	*	*	*
.	.	0r	.	4d\	.	1f	Ve-
.	.	.	.	4e\	.	.	.
.	.	.	.	1d\	.	.	.
=58-	=58-	=58-	=58-	=58-	=58-	=58-	=58-
0ryy	.	.	.	.	.	2.e/	.
.	.	.	.	1c	.	.	.
.	.	.	.	.	.	4f/	.
!	!	!LO:TX:t=P:problem=kreska pseudotaktowa	!	!	!	!	!
.	.	1r	.	.	.	4g/	.
.	.	.	.	.	.	4a/	.
!	!	!	!	!LO:TX:t=P:problem=kreska pseudotaktowa	!	!	!
.	.	.	.	2B/	.	1g\	.
=59-	=59-	=59-	=59-	=59-	=59-	=59-	=59-
0ryy	.	1D	Be-	2A/	.	.	.
.	.	.	.	1d	-di-	2.f/	.
.	.	1F	-ne-	.	.	.	.
.	.	.	.	.	.	4g/	.
!	!	!	!	!LO:TX:t=P::problem=kreska pseudotaktowa&colon;między nutą a kropką	!	!LO:TX:t=P:problem=kreska pseudotaktowa	!
.	.	.	.	2.c\	.	2a\	.
=60-	=60-	=60-	=60-	=60-	=60-	=60-	=60-
0ryy	.	2.E/	-di-	.	.	2g\	.
.	.	.	.	4d\	.	.	.
.	.	.	.	2e\	.	1cc	.
.	.	4F/	.	.	.	.	.
!	!	!	!	!LO:TX:t=P:problem=kreska pseudotaktowa	!	!	!
.	.	4G/	.	0d	-ctus	.	.
.	.	4A/	.	.	.	.	.
.	.	1G/	.	.	.	2b\	.
=61-	=61-	=61-	=61-	=61-	=61-	=61-	=61-
0ryy	.	.	.	.	.	1a	.
!	!	!LO:TX:t=P:problem=kreska pseudotaktowa	!	!	!	!	!
.	.	2F/	-ctus	.	.	.	.
!	!	!	!	!	!	!LO:TX:t=P:problem=kreska pseudotaktowa	!
.	.	4G/	qui	2r	.	1g	-nit
.	.	4A/	.	.	.	.	.
.	.	4B/	.	2d\	qui	.	.
.	.	4c/	.	.	.	.	.
=62-	=62-	=62-	=62-	=62-	=62-	=62-	=62-
!	!	!	!	!LO:TX:t=P:problem=kreska pseudotaktowa	!	!	!
0ryy	.	1d	Ve-	1f	Ve-	2r	.
.	.	.	.	.	.	2a\	qui
.	.	2A\	.	2.e\	.	1cc	Ve-
.	.	2c\	.	.	.	.	.
.	.	.	.	4f\	.	.	.
=63-	=63-	=63-	=63-	=63-	=63-	=63-	=63-
0ryy	.	1G	.	4g\	.	2.b\	.
.	.	.	.	4a\	.	.	.
.	.	.	.	1g	.	.	.
*	*	*	*	*	*	*custos:dd	*
!	!	!	!	!	!	!LO:TX:t=P:problem=kreska pseudotaktowa	!
.	.	.	.	.	.	4cc\	.
!	!	!	!	!	!	!LO:LB:g=original	!
*	*	*	*	*	*	*xywh-#45:7197,3003,5967,613	*
.	.	2.D/	.	.	.	4dd\	.
.	.	.	.	.	.	4ee\	.
!	!	!	!	!LO:TX:t=P::problem=kreska pseudotaktowa&colon;między nutą a kropką	!	!	!
.	.	.	.	2.f\	.	1dd	.
.	.	4E/	.	.	.	.	.
=64-	=64-	=64-	=64-	=64-	=64-	=64-	=64-
0ryy	.	4F/	.	.	.	.	.
.	.	4G/	.	2e\	.	.	.
.	.	2A/	.	.	.	1cc,	-nit
.	.	.	.	8d\L	.	.	.
.	.	.	.	8c\J	.	.	.
.	.	1G	.	1d	.	.	.
!	!	!	!	!	!	!LO:TX:t=P:problem=kreska pseudotaktowa	!
.	.	.	.	.	.	2b\	in
=65-	=65-	=65-	=65-	=65-	=65-	=65-	=65-
!	!	!LO:TX:t=P:problem=kreska pseudotaktowa	!	!	!	!	!
0ryy	.	1C	-nit	2c\	.	2cc\	No-
.	.	.	.	2e\	.	2g\	-mi-
!	!	!LO:LB:g=original	!	!	!	!	!
*	*	*xywh-#206:1503,3085,4843,763	*	*	*	*	*
.	.	2r	.	2d\	.	2f/	-ne
!	!	!	!	!	!	!LO:TX:t=P:problem=kreska pseudotaktowa	!
.	.	1c\	in	2c\	.	2g/	.
=66-	=66-	=66-	=66-	=66-	=66-	=66-	=66-
!	!	!	!	!LO:TX:t=P:problem=kreska pseudotaktowa	!	!	!
0ryy	.	.	.	1G	-nit.	2e/	Do-
.	.	2B\	No-	.	.	2d/	.
.	.	2c\	-mi-	1ra	.	2.e/	.
!	!	!LO:TX:t=P:problem=kreska pseudotaktowa	!	!	!	!	!
.	.	2A\	-ne	.	.	.	.
.	.	.	.	.	.	4f/	.
=67-	=67-	=67-	=67-	=67-	=67-	=67-	=67-
0ryy	.	2G/	Do-	2rf	.	2g/	.
!	!	!	!	!	!	!LO:TX:t=P:problem=kreska pseudotaktowa	!
.	.	2F/	-mi-	1f	in	2a\	.
!	!	!LO:TX:t=P:problem=kreska pseudotaktowa	!	!	!	!	!
.	.	1C	-ni	.	.	2g\	.
.	.	.	.	2e\	No-	1cc	.
=68-	=68-	=68-	=68-	=68-	=68-	=68-	=68-
0ryy	.	0r	.	2f\	-mi-	.	.
!	!	!	!	!LO:TX:t=P:problem=kreska pseudotaktowa	!	!	!
.	.	.	.	2d\	-ne	2b\	.
.	.	.	.	2.c/	Do-	2cc\	.
.	.	.	.	.	.	2a\	.
.	.	.	.	4B/	.	.	.
=69-	=69-	=69-	=69-	=69-	=69-	=69-	=69-
!	!	!LO:TX:t=P:problem=kreska pseudotaktowa	!	!	!	!	!
0ryy	.	1r	.	2c/	.	2g/	-mi-
!	!	!	!	!LO:TX:t=P:problem=kreska pseudotaktowa	!	!LO:TX:t=P:problem=kreska pseudotaktowa	!
.	.	.	.	2d\	.	2f/	.
!	!	!	!	!LO:LB:g=original	!	!	!
*	*	*	*	*xywh-#129:7326,4331,4391,770	*	*	*
.	.	2rF	.	2c/	.	2g,/	-ni
.	.	1G	in	2.B/	.	2d/	in
=70-	=70-	=70-	=70-	=70-	=70-	=70-	=70-
0ryy	.	.	.	.	.	2e/	N(o-
.	.	.	.	4G/	.	.	.
!	!	!LO:TX:t=P:problem=kreska pseudotaktowa	!	!LO:TX:t=P:problem=kreska pseudotaktowa	!	!	!
.	.	2F/	No-	2A/	.	2f/	-mi)-
.	.	2G/	-mi-	2B/	.	2d/	-ne
.	.	2E/	-ne	2G/	.	2e/	Do-
=71-	=71-	=71-	=71-	=71-	=71-	=71-	=71-
0ryy	.	2D/	Do-	0A	-mi-	2f/	.
.	.	2C/	.	.	.	1g	.
.	.	1D	-mi-	.	.	.	.
.	.	.	.	.	.	2f#X/	-mi-
=72-	=72-	=72-	=72-	=72-	=72-	=72-	=72-
!LO:TX:a:i:t=Osanna daCapo.	!	!LO:TX:b:i:t=Osanna Da Capo	!	!LO:TX:b:i:t=Osanna ut Supra	!	!LO:TX:b:i:t=Osanna ut Supra	!
0ryy	.	0Gl;	-ni.	0Gl;	-ni.	0gl;	-ni.
==	==	==	==	==	==	==	==
*-	*-	*-	*-	*-	*-	*-	*-
!!!system-decoration: [g1]
!!!RDF**kern: > = above
!!!RDF**kern: < = below
!!!RDF**kern: l = terminal long
!!!ENC: Andrzej Kubiczek
!!!END: 2021-03-16
!!!ENC: Andrzej Borzym
!!!END: 2021-02-27
!!!ENC-iiif: Konrad Tyszka
!!!END-iiif: 2022-09-04
!!!YEC: Copyright 2022 Narodowy Instytut Fryderyka Chopina (https://polishscores.org)
!!!YEM: License CC-BY-4.0 (https://creativecommons.org/licenses/by/4.0)
